flaticon/transport/bus-15.svg

<svg xmlns="http://www.w3.org/2000/svg" width="32" height="32" viewBox="0 0 24 24">
    <path d="M21.164062 15.792969L16.371094 15.792969C16.132812 15.792969 15.972656 15.953125 15.972656 16.191406 15.972656 16.433594 16.132812 16.59375 16.371094 16.59375L21.164062 16.59375C21.40625 16.59375 21.5625 16.433594 21.5625 16.191406 21.5625 15.953125 21.40625 15.792969 21.164062 15.792969zM15.414062 4.214844L12.539062 4.214844C12.019531 4.214844 11.582031 4.652344 11.582031 5.171875L11.582031 8.84375C11.582031 9.363281 12.019531 9.804688 12.539062 9.804688L15.414062 9.804688C15.933594 9.804688 16.371094 9.363281 16.371094 8.84375L16.371094 5.171875C16.371094 4.652344 15.933594 4.214844 15.414062 4.214844zM15.574219 8.84375C15.574219 8.925781 15.496094 9.003906 15.414062 9.003906L12.539062 9.003906C12.460938 9.003906 12.378906 8.925781 12.378906 8.84375L12.378906 5.171875C12.378906 5.089844 12.460938 5.011719 12.539062 5.011719L15.414062 5.011719C15.496094 5.011719 15.574219 5.089844 15.574219 5.171875zM9.425781 4.214844L6.550781 4.214844C6.03125 4.214844 5.589844 4.652344 5.589844 5.171875L5.589844 8.84375C5.589844 9.363281 6.03125 9.804688 6.550781 9.804688L9.425781 9.804688C9.945312 9.804688 10.382812 9.363281 10.382812 8.84375L10.382812 5.171875C10.382812 4.652344 9.945312 4.214844 9.425781 4.214844zM9.585938 8.84375C9.585938 8.925781 9.503906 9.003906 9.425781 9.003906L6.550781 9.003906C6.46875 9.003906 6.390625 8.925781 6.390625 8.84375L6.390625 5.171875C6.390625 5.089844 6.46875 5.011719 6.550781 5.011719L9.425781 5.011719C9.503906 5.011719 9.585938 5.089844 9.585938 5.171875zM4.792969 15.792969C4.351562 15.792969 3.992188 16.152344 3.992188 16.59375 3.992188 17.03125 4.351562 17.390625 4.792969 17.390625 5.230469 17.390625 5.589844 17.03125 5.589844 16.59375 5.589844 16.152344 5.230469 15.792969 4.792969 15.792969zM4.792969 15.792969"/>
    <path d="M 23.640625 6.886719 L 20.167969 3.054688 C 19.886719 2.777344 19.527344 2.617188 19.167969 2.617188 L 1.199219 2.617188 C 0.558594 2.617188 0 3.132812 0 3.8125 L 0 15.792969 C 0 16.433594 0.519531 16.992188 1.199219 16.992188 L 2.023438 16.992188 C 2.214844 18.355469 3.371094 19.386719 4.792969 19.386719 C 6.214844 19.386719 7.367188 18.355469 7.558594 16.992188 L 13.636719 16.992188 C 14.019531 19.484375 16.164062 21.382812 18.769531 21.382812 C 21.644531 21.382812 23.960938 19.066406 23.960938 16.191406 C 23.960938 16.132812 23.957031 16.070312 23.957031 16.007812 C 23.957031 16.003906 23.960938 16 23.960938 15.992188 C 24 15.953125 24 15.875 24 15.792969 L 24 7.808594 C 24 7.449219 23.878906 7.128906 23.640625 6.886719 Z M 23 7.40625 C 23.121094 7.488281 23.160156 7.648438 23.160156 7.765625 L 23.160156 9.003906 L 18.371094 9.003906 L 18.371094 5.011719 L 20.804688 5.011719 Z M 0.796875 5.011719 L 3.515625 5.011719 C 3.554688 5.011719 3.59375 5.050781 3.59375 5.089844 L 3.59375 8.925781 C 3.59375 8.964844 3.554688 9.003906 3.515625 9.003906 L 0.796875 9.003906 Z M 4.792969 18.589844 C 3.675781 18.589844 2.796875 17.710938 2.796875 16.59375 C 2.796875 15.472656 3.675781 14.59375 4.792969 14.59375 C 5.910156 14.59375 6.789062 15.472656 6.789062 16.59375 C 6.789062 17.710938 5.910156 18.589844 4.792969 18.589844 Z M 18.769531 20.585938 C 16.332031 20.585938 14.375 18.628906 14.375 16.191406 C 14.375 13.757812 16.332031 11.800781 18.769531 11.800781 C 18.804688 11.800781 18.839844 11.800781 18.878906 11.800781 C 20.566406 11.84375 22.03125 12.863281 22.746094 14.320312 C 23.011719 14.886719 23.160156 15.523438 23.160156 16.191406 C 23.160156 18.628906 21.203125 20.585938 18.769531 20.585938 Z M 19.125 11.015625 C 19.113281 11.011719 19.101562 11.011719 19.089844 11.011719 C 19.050781 11.007812 19.007812 11.007812 18.96875 11.003906 C 18.953125 11.003906 18.941406 11.003906 18.925781 11.003906 C 18.875 11.003906 18.820312 11 18.769531 11 C 15.894531 11 13.578125 13.316406 13.578125 16.191406 L 7.558594 16.191406 C 7.367188 14.828125 6.214844 13.796875 4.792969 13.796875 C 4.785156 13.796875 4.777344 13.796875 4.773438 13.796875 C 4.765625 13.796875 4.757812 13.796875 4.753906 13.796875 C 3.355469 13.796875 2.195312 14.835938 1.996094 16.191406 L 1.199219 16.191406 C 1 16.191406 0.796875 16.035156 0.796875 15.792969 L 0.796875 13 L 12.777344 13 C 13.019531 13 13.179688 12.839844 13.179688 12.597656 C 13.179688 12.359375 13.019531 12.199219 12.777344 12.199219 L 0.796875 12.199219 L 0.796875 11.402344 L 11.179688 11.402344 C 11.421875 11.402344 11.582031 11.242188 11.582031 11 C 11.582031 10.761719 11.421875 10.601562 11.179688 10.601562 L 0.796875 10.601562 L 0.796875 9.804688 L 3.515625 9.804688 C 3.992188 9.804688 4.394531 9.40625 4.394531 8.925781 L 4.394531 5.089844 C 4.394531 4.613281 3.992188 4.214844 3.515625 4.214844 L 0.796875 4.214844 L 0.796875 3.8125 C 0.796875 3.613281 1 3.414062 1.199219 3.414062 L 19.167969 3.414062 C 19.289062 3.414062 19.449219 3.496094 19.566406 3.574219 L 20.140625 4.214844 L 18.25 4.214844 C 17.890625 4.214844 17.570312 4.53125 17.570312 4.890625 L 17.570312 9.125 C 17.570312 9.484375 17.890625 9.804688 18.25 9.804688 L 23.160156 9.804688 L 23.160156 13.417969 C 22.304688 12.058594 20.828125 11.128906 19.125 11.015625 Z M 19.125 11.015625"/>
</svg>

<svg xmlns="http://www.w3.org/2000/svg" width="32" height="32" viewBox="0 0 24 24">
    <path d="M21.164 15.793h-4.793c-.238 0-.398.16-.398.398 0 .243.16.403.398.403h4.793c.242 0 .398-.16.398-.403 0-.238-.156-.398-.398-.398zm0 0M15.414 4.215H12.54a.969.969 0 0 0-.957.957v3.672c0 .52.438.96.957.96h2.875c.52 0 .957-.44.957-.96V5.172a.969.969 0 0 0-.957-.957zm.16 4.629a.17.17 0 0 1-.16.16H12.54c-.078 0-.16-.078-.16-.16V5.172c0-.082.082-.16.16-.16h2.875a.17.17 0 0 1 .16.16zm0 0M9.426 4.215H6.55c-.52 0-.961.437-.961.957v3.672c0 .52.441.96.96.96h2.876c.52 0 .957-.44.957-.96V5.172a.969.969 0 0 0-.957-.957zm.16 4.629c0 .082-.082.16-.16.16H6.55a.17.17 0 0 1-.16-.16V5.172a.17.17 0 0 1 .16-.16h2.875c.078 0 .16.078.16.16zm0 0M4.793 15.793c-.441 0-.8.36-.8.8 0 .438.359.798.8.798a.8.8 0 0 0 .797-.797c0-.442-.36-.801-.797-.801zm0 0"/>
    <path d="M23.64 6.887l-3.472-3.832c-.281-.278-.64-.438-1-.438H1.199C.56 2.617 0 3.133 0 3.813v11.98c0 .64.52 1.2 1.2 1.2h.823a2.778 2.778 0 0 0 2.77 2.394 2.774 2.774 0 0 0 2.766-2.395h6.078a5.18 5.18 0 0 0 5.133 4.39 5.181 5.181 0 0 0 5.19-5.19c0-.06-.003-.122-.003-.184 0-.004.004-.008.004-.016.039-.039.039-.117.039-.199V7.809c0-.36-.121-.68-.36-.922zm-.64.52c.121.081.16.241.16.359v1.238h-4.789V5.012h2.434zM.797 5.011h2.719c.039 0 .078.039.078.078v3.836c0 .039-.04.078-.078.078H.796zM4.793 18.59a1.977 1.977 0 0 1-1.996-1.996c0-1.121.879-2 1.996-2s1.996.879 1.996 2a1.977 1.977 0 0 1-1.996 1.996zm13.977 1.996a4.381 4.381 0 0 1-4.395-4.395 4.38 4.38 0 0 1 4.395-4.39h.109c1.687.043 3.152 1.062 3.867 2.52.266.566.414 1.202.414 1.87a4.38 4.38 0 0 1-4.39 4.395zm.355-9.57c-.012-.004-.023-.004-.035-.004-.04-.004-.082-.004-.121-.008h-.043c-.051 0-.106-.004-.156-.004a5.181 5.181 0 0 0-5.192 5.191h-6.02a2.774 2.774 0 0 0-2.765-2.394h-.04a2.796 2.796 0 0 0-2.757 2.394H1.2a.4.4 0 0 1-.402-.398V13h11.98c.243 0 .403-.16.403-.402 0-.239-.16-.399-.403-.399H.797v-.797H11.18c.242 0 .402-.16.402-.402 0-.238-.16-.398-.402-.398H.797v-.797h2.719a.888.888 0 0 0 .879-.88V5.09a.887.887 0 0 0-.88-.875H.798v-.402c0-.2.203-.399.402-.399h17.969c.121 0 .281.082.398.16l.575.64H18.25c-.36 0-.68.317-.68.677v4.234c0 .36.32.68.68.68h4.91v3.613a5.168 5.168 0 0 0-4.035-2.402zm0 0"/>
</svg>
